svg/monochrome/clinic-medical.svg

<svg xmlns="http://www.w3.org/2000/svg" data-name="Layer 1" viewBox="0 0 24 24"><path class="uim-tertiary" d="M21,12a.99554.99554,0,0,1-.66406-.25244L12,4.33789,3.66406,11.74756a.99991.99991,0,0,1-1.32812-1.49512l9-8a.99893.99893,0,0,1,1.32812,0l9,8A1,1,0,0,1,21,12Z"/><path class="uim-primary" d="M14,13H13V12a1,1,0,0,0-2,0v1H10a1,1,0,0,0,0,2h1v1a1,1,0,0,0,2,0V15h1a1,1,0,0,0,0-2Z"/><path class="uim-quaternary" d="M12,4.33789,4,11.449V21a.99974.99974,0,0,0,1,1H19a.99974.99974,0,0,0,1-1V11.449ZM14,15H13v1a1,1,0,0,1-2,0V15H10a1,1,0,0,1,0-2h1V12a1,1,0,0,1,2,0v1h1a1,1,0,0,1,0,2Z"/></svg>

<svg xmlns="http://www.w3.org/2000/svg" data-name="Layer 1" viewBox="0 0 24 24"><path class="uim-tertiary" d="M21 12a.996.996 0 0 1-.664-.252L12 4.338l-8.336 7.41a1 1 0 0 1-1.328-1.496l9-8a.999.999 0 0 1 1.328 0l9 8A1 1 0 0 1 21 12Z"/><path class="uim-primary" d="M14 13h-1v-1a1 1 0 0 0-2 0v1h-1a1 1 0 0 0 0 2h1v1a1 1 0 0 0 2 0v-1h1a1 1 0 0 0 0-2Z"/><path class="uim-quaternary" d="m12 4.338-8 7.111V21a1 1 0 0 0 1 1h14a1 1 0 0 0 1-1v-9.551ZM14 15h-1v1a1 1 0 0 1-2 0v-1h-1a1 1 0 0 1 0-2h1v-1a1 1 0 0 1 2 0v1h1a1 1 0 0 1 0 2Z"/></svg>
